X: 32614
T: Plassey On The Rocks, The
R: reel
M: 4/4
K: Gmajor
|:EF|GBAG FGEF|DECD B,2EG|AcBA GBAG|FGEF D2 EF|
GBAB DBAB|EcBA DBAB|EcBA DBAB|DADA G2:|
|:FG|Adcd Bd^Ad|AcBA E2FG|AcBA DcBA|EcBA EBAc|
BDdD cDdD|^ADBD cDd2|EcBA DBAB|1 DADA G2:|2 DADA G3||
|:c|ddBd g3d|eece a3c'|bagb agfe|c'bab d3^c|
(3ded Bd g3^d|e<e ac'e'3g|fada caBg|^deAF G3:|

